X: 8850
T: Culburnie Cottage
R: reel
M: 4/4
K: Dmajor
|:fe|{c}d2AF DFAF|GDGA B2cB|Aa^ga =gfed|c2Ac egfe|
{c}d2AF DFAF|GDGA B2cB|Aa^ga =gecA|d6:|
|:fg|a2fa gece|dAFA d2cd|ecAc eAce|fdba agfg|
a2fa gece|dAFA d2cd|ea^ga =gecA|d6:|

